build/img/sprite/youtube-icon.svg

<svg width="29" height="25" viewBox="0 0 29 25" fill="none" xmlns="http://www.w3.org/2000/svg">
<path fill-rule="evenodd" clip-rule="evenodd" d="M22.5828 4.47343C23.6108 4.75596 24.4213 5.58339 24.6981 6.63281C25.2121 8.55002 25.1923 12.5459 25.1923 12.5459C25.1923 12.5459 25.1923 16.5216 24.6981 18.4388C24.4213 19.4882 23.6108 20.3156 22.5828 20.5982C20.7047 21.1027 13.1923 21.1027 13.1923 21.1027C13.1923 21.1027 5.69979 21.1027 3.80193 20.578C2.77392 20.2955 1.96339 19.468 1.68662 18.4186C1.19238 16.5216 1.19238 12.5257 1.19238 12.5257C1.19238 12.5257 1.19238 8.55002 1.68662 6.63281C1.96339 5.58339 2.7937 4.73578 3.80193 4.45324C5.68001 3.94872 13.1923 3.94872 13.1923 3.94872C13.1923 3.94872 20.7047 3.94872 22.5828 4.47343ZM10.8005 8.85285L17.0476 12.5259L10.8005 16.1988V8.85285Z" fill="white"/>
</svg>

<svg width="29" height="25" fill="none" xmlns="http://www.w3.org/2000/svg"><path fill-rule="evenodd" clip-rule="evenodd" d="M22.583 4.473a3.039 3.039 0 012.115 2.16c.514 1.917.494 5.913.494 5.913s0 3.976-.494 5.893a3.04 3.04 0 01-2.115 2.16c-1.878.504-9.39.504-9.39.504s-7.493 0-9.391-.525a3.039 3.039 0 01-2.115-2.16c-.495-1.896-.495-5.892-.495-5.892s0-3.976.495-5.893c.276-1.05 1.107-1.897 2.115-2.18 1.878-.504 9.39-.504 9.39-.504s7.513 0 9.39.524zM10.8 8.853l6.247 3.673-6.247 3.673V8.853z" fill="#fff"/></svg>
